svg/business/currency_shekel_2_fill.svg

<?xml version="1.0" encoding="UTF-8"?>
<svg width="24px" height="24px" viewBox="0 0 24 24" version="1.1" xmlns="http://www.w3.org/2000/svg" xmlns:xlink="http://www.w3.org/1999/xlink">
    <title>currency_shekel_2_fill</title>
    <g id="页面-1" stroke="none" stroke-width="1" fill="none" fill-rule="evenodd">
        <g id="Business" transform="translate(-576.000000, -336.000000)" fill-rule="nonzero">
            <g id="currency_shekel_2_fill" transform="translate(576.000000, 336.000000)">
                <path d="M24,0 L24,24 L0,24 L0,0 L24,0 Z M12.5934901,23.257841 L12.5819402,23.2595131 L12.5108777,23.2950439 L12.4918791,23.2987469 L12.4918791,23.2987469 L12.4767152,23.2950439 L12.4056548,23.2595131 C12.3958229,23.2563662 12.3870493,23.2590235 12.3821421,23.2649074 L12.3780323,23.275831 L12.360941,23.7031097 L12.3658947,23.7234994 L12.3769048,23.7357139 L12.4804777,23.8096931 L12.4953491,23.8136134 L12.4953491,23.8136134 L12.5071152,23.8096931 L12.6106902,23.7357139 L12.6232938,23.7196733 L12.6232938,23.7196733 L12.6266527,23.7031097 L12.609561,23.275831 C12.6075724,23.2657013 12.6010112,23.2592993 12.5934901,23.257841 L12.5934901,23.257841 Z M12.8583906,23.1452862 L12.8445485,23.1473072 L12.6598443,23.2396597 L12.6498822,23.2499052 L12.6498822,23.2499052 L12.6471943,23.2611114 L12.6650943,23.6906389 L12.6699349,23.7034178 L12.6699349,23.7034178 L12.678386,23.7104931 L12.8793402,23.8032389 C12.8914285,23.8068999 12.9022333,23.8029875 12.9078286,23.7952264 L12.9118235,23.7811639 L12.8776777,23.1665331 C12.8752882,23.1545897 12.8674102,23.1470016 12.8583906,23.1452862 L12.8583906,23.1452862 Z M12.1430473,23.1473072 C12.1332178,23.1423925 12.1221763,23.1452606 12.1156365,23.1525954 L12.1099173,23.1665331 L12.0757714,23.7811639 C12.0751323,23.7926639 12.0828099,23.8018602 12.0926481,23.8045676 L12.108256,23.8032389 L12.3092106,23.7104931 L12.3186497,23.7024347 L12.3186497,23.7024347 L12.3225043,23.6906389 L12.340401,23.2611114 L12.337245,23.2485176 L12.337245,23.2485176 L12.3277531,23.2396597 L12.1430473,23.1473072 Z" id="MingCute" fill-rule="nonzero"></path>
                <path d="M10,3.5 C12.9635122,3.5 15.3795407,5.84377632 15.4956329,8.77879259 L15.5,9 L15.5,15 C15.5,15.8284 14.8284,16.5 14,16.5 C13.2203294,16.5 12.5795543,15.9050879 12.5068668,15.1444558 L12.5,15 L12.5,9 C12.5,7.6745184 11.4684531,6.58996147 10.1643744,6.50531769 L10,6.5 L7.5,6.5 L7.5,19 C7.5,19.8284 6.82843,20.5 6,20.5 C5.22030118,20.5 4.579551,19.9050879 4.50686655,19.1444558 L4.5,19 L4.5,5 C4.5,4.22030118 5.09488554,3.579551 5.85553954,3.50686655 L6,3.5 L10,3.5 Z M18,3.5 C18.7796706,3.5 19.4204457,4.09488554 19.4931332,4.85553954 L19.5,5 L19.5,19 C19.5,19.7796706 18.9050879,20.4204457 18.1444558,20.4931332 L18,20.5 L14,20.5 C11.0364878,20.5 8.62045925,18.1562522 8.50436714,15.2212095 L8.5,15 L8.5,9 C8.5,8.17157 9.17157,7.5 10,7.5 C10.7796706,7.5 11.4204457,8.09488554 11.4931332,8.85553954 L11.5,9 L11.5,15 C11.5,16.325472 12.5315469,17.4100378 13.8356256,17.4946823 L14,17.5 L16.5,17.5 L16.5,5 C16.5,4.17157 17.1716,3.5 18,3.5 Z" id="形状" fill="#09244B"></path>
            </g>
        </g>
    </g>
</svg>

<svg xmlns="http://www.w3.org/2000/svg" width="24" height="24"><g fill="none" fill-rule="nonzero"><path d="M24 0v24H0V0zM12.593 23.258l-.011.002-.071.035-.02.004-.014-.004-.071-.035c-.01-.004-.019-.001-.024.005l-.004.01-.017.428.005.02.01.013.104.074.015.004.012-.004.104-.074.012-.016.004-.017-.017-.427c-.002-.01-.009-.017-.017-.018m.265-.113-.013.002-.185.093-.01.01-.003.011.018.43.005.012.008.007.201.093c.012.004.023 0 .029-.008l.004-.014-.034-.614c-.003-.012-.01-.02-.02-.022m-.715.002a.023.023 0 0 0-.027.006l-.006.014-.034.614c0 .012.007.02.017.024l.015-.002.201-.093.01-.008.004-.011.017-.43-.003-.012-.01-.01z"/><path fill="#09244B" d="M10 3.5a5.5 5.5 0 0 1 5.496 5.279L15.5 9v6a1.5 1.5 0 0 1-2.993.144L12.5 15V9a2.5 2.5 0 0 0-2.336-2.495L10 6.5H7.5V19a1.5 1.5 0 0 1-2.993.144L4.5 19V5a1.5 1.5 0 0 1 1.356-1.493L6 3.5zm8 0a1.5 1.5 0 0 1 1.493 1.356L19.5 5v14a1.5 1.5 0 0 1-1.356 1.493L18 20.5h-4a5.5 5.5 0 0 1-5.496-5.279L8.5 15V9a1.5 1.5 0 0 1 2.993-.144L11.5 9v6a2.5 2.5 0 0 0 2.336 2.495L14 17.5h2.5V5A1.5 1.5 0 0 1 18 3.5"/></g></svg>
